assets/images/home/More.svg

<svg viewBox="0 0 100 100" xmlns="http://www.w3.org/2000/svg"><path d="m99.33 50c0 1.11 0 2.19-.12 3.28q0 .67-.12 1.35a49.28 49.28 0 0 1 -47.93 44.69c-.39 0-.78 0-1.17 0-.6 0-1.17 0-1.75 0a49.33 49.33 0 1 1 51.09-49.32z" fill="#adcfff"/><path d="m30.57 25.4 42.64.6 25.88 28.63a49.28 49.28 0 0 1 -47.93 44.69c-10.44-9.88-27.66-24.93-27.66-24.93l.42-42.39" fill="#8bbbff"/><g fill="#5babf4"><path d="m29.4 25.53h11.54a5.35 5.35 0 0 1 5.35 5.34v11.54a5.35 5.35 0 0 1 -5.35 5.35h-11.54a5.35 5.35 0 0 1 -5.35-5.35v-11.54a5.35 5.35 0 0 1 5.35-5.34z"/><path d="m58.47 25.53h11.53a5.34 5.34 0 0 1 5.34 5.34v11.54a5.34 5.34 0 0 1 -5.34 5.35h-11.53a5.34 5.34 0 0 1 -5.34-5.35v-11.54a5.34 5.34 0 0 1 5.34-5.34z"/><path d="m64.24 54.6a11.12 11.12 0 1 1 -11.11 11.12 11.12 11.12 0 0 1 11.11-11.12z"/><path d="m29.4 54.6h11.54a5.35 5.35 0 0 1 5.35 5.34v11.55a5.35 5.35 0 0 1 -5.35 5.34h-11.54a5.35 5.35 0 0 1 -5.35-5.34v-11.55a5.35 5.35 0 0 1 5.35-5.34z"/></g><path d="m46.29 30.87v11.54a5.35 5.35 0 0 1 -5.35 5.35h-4.27a5.34 5.34 0 0 0 5.33-5.35v-11.54a5.34 5.34 0 0 0 -5.34-5.34h4.27a5.35 5.35 0 0 1 5.36 5.34z" fill="#2fa2f7"/><path d="m75.36 30.87v11.54a5.34 5.34 0 0 1 -5.36 5.35h-4.26a5.35 5.35 0 0 0 5.35-5.35v-11.54a5.35 5.35 0 0 0 -5.35-5.34h4.26a5.34 5.34 0 0 1 5.36 5.34z" fill="#2fa2f7"/><path d="m75.36 65.72a11.1 11.1 0 0 1 -11.12 11.11 11.48 11.48 0 0 1 -2.13-.2 11.12 11.12 0 0 0 0-21.82 10.69 10.69 0 0 1 2.13-.21 11.12 11.12 0 0 1 11.12 11.12z" fill="#2fa2f7"/><path d="m46.29 59.94v11.55a5.35 5.35 0 0 1 -5.35 5.34h-4.27a5.34 5.34 0 0 0 5.33-5.34v-11.55a5.34 5.34 0 0 0 -5.34-5.34h4.27a5.35 5.35 0 0 1 5.36 5.34z" fill="#2fa2f7"/><path d="m40.94 49.47h-11.54a7.07 7.07 0 0 1 -7.06-7.06v-11.54a7.06 7.06 0 0 1 7.06-7h11.54a7.06 7.06 0 0 1 7.06 7v11.54a7.07 7.07 0 0 1 -7.06 7.06zm-11.54-22.23a3.64 3.64 0 0 0 -3.64 3.63v11.54a3.64 3.64 0 0 0 3.64 3.64h11.54a3.64 3.64 0 0 0 3.64-3.64v-11.54a3.64 3.64 0 0 0 -3.64-3.63z" fill="#0051be"/><path d="m70 49.47h-11.53a7.06 7.06 0 0 1 -7-7.06v-11.54a7.05 7.05 0 0 1 7-7h11.53a7.05 7.05 0 0 1 7 7.05v11.49a7.06 7.06 0 0 1 -7 7.06zm-11.53-22.23a3.64 3.64 0 0 0 -3.63 3.63v11.54a3.64 3.64 0 0 0 3.63 3.64h11.53a3.64 3.64 0 0 0 3.63-3.64v-11.54a3.64 3.64 0 0 0 -3.63-3.63z" fill="#0051be"/><path d="m64.24 78.54a12.83 12.83 0 1 1 12.83-12.82 12.83 12.83 0 0 1 -12.83 12.82zm0-22.23a9.41 9.41 0 1 0 9.41 9.41 9.42 9.42 0 0 0 -9.41-9.41z" fill="#0051be"/><path d="m40.94 78.54h-11.54a7.06 7.06 0 0 1 -7.06-7.05v-11.55a7.06 7.06 0 0 1 7.06-7h11.54a7.06 7.06 0 0 1 7.06 7v11.55a7.06 7.06 0 0 1 -7.06 7.05zm-11.54-22.23a3.64 3.64 0 0 0 -3.64 3.63v11.55a3.64 3.64 0 0 0 3.64 3.63h11.54a3.64 3.64 0 0 0 3.64-3.63v-11.55a3.64 3.64 0 0 0 -3.64-3.63z" fill="#0051be"/></svg>

<svg id="Layer_1" data-name="Layer 1" xmlns="http://www.w3.org/2000/svg" viewBox="0 0 100 100"><defs><style>.cls-1{fill:#adcfff;}.cls-2{fill:#8bbbff;}.cls-3{fill:#5babf4;}.cls-4{fill:#2fa2f7;}.cls-5{fill:#0051be;}</style></defs><path class="cls-1" d="M99.33,50c0,1.11,0,2.19-.12,3.28q0,.67-.12,1.35A49.28,49.28,0,0,1,51.16,99.32c-.39,0-.78,0-1.17,0-.6,0-1.17,0-1.75,0A49.33,49.33,0,1,1,99.33,50Z"/><path class="cls-2" d="M30.57,25.4,73.21,26,99.09,54.63A49.28,49.28,0,0,1,51.16,99.32C40.72,89.44,23.5,74.39,23.5,74.39L23.92,32"/><path class="cls-3" d="M29.4,25.53H40.94a5.35,5.35,0,0,1,5.35,5.34V42.41a5.35,5.35,0,0,1-5.35,5.35H29.4a5.35,5.35,0,0,1-5.35-5.35V30.87A5.35,5.35,0,0,1,29.4,25.53Z"/><path class="cls-3" d="M58.47,25.53H70a5.34,5.34,0,0,1,5.34,5.34V42.41A5.34,5.34,0,0,1,70,47.76H58.47a5.34,5.34,0,0,1-5.34-5.35V30.87A5.34,5.34,0,0,1,58.47,25.53Z"/><path class="cls-3" d="M64.24,54.6A11.12,11.12,0,1,1,53.13,65.72,11.12,11.12,0,0,1,64.24,54.6Z"/><path class="cls-3" d="M29.4,54.6H40.94a5.35,5.35,0,0,1,5.35,5.34V71.49a5.35,5.35,0,0,1-5.35,5.34H29.4a5.35,5.35,0,0,1-5.35-5.34V59.94A5.35,5.35,0,0,1,29.4,54.6Z"/><path class="cls-4" d="M46.29,30.87V42.41a5.35,5.35,0,0,1-5.35,5.35H36.67A5.34,5.34,0,0,0,42,42.41V30.87a5.34,5.34,0,0,0-5.34-5.34h4.27A5.35,5.35,0,0,1,46.29,30.87Z"/><path class="cls-4" d="M75.36,30.87V42.41A5.34,5.34,0,0,1,70,47.76H65.74a5.35,5.35,0,0,0,5.35-5.35V30.87a5.35,5.35,0,0,0-5.35-5.34H70A5.34,5.34,0,0,1,75.36,30.87Z"/><path class="cls-4" d="M75.36,65.72A11.1,11.1,0,0,1,64.24,76.83a11.48,11.48,0,0,1-2.13-.2,11.12,11.12,0,0,0,0-21.82,10.69,10.69,0,0,1,2.13-.21A11.12,11.12,0,0,1,75.36,65.72Z"/><path class="cls-4" d="M46.29,59.94V71.49a5.35,5.35,0,0,1-5.35,5.34H36.67A5.34,5.34,0,0,0,42,71.49V59.94a5.34,5.34,0,0,0-5.34-5.34h4.27A5.35,5.35,0,0,1,46.29,59.94Z"/><path class="cls-5" d="M40.94,49.47H29.4a7.07,7.07,0,0,1-7.06-7.06V30.87a7.06,7.06,0,0,1,7.06-7H40.94A7.06,7.06,0,0,1,48,30.87V42.41A7.07,7.07,0,0,1,40.94,49.47ZM29.4,27.24a3.64,3.64,0,0,0-3.64,3.63V42.41a3.64,3.64,0,0,0,3.64,3.64H40.94a3.64,3.64,0,0,0,3.64-3.64V30.87a3.64,3.64,0,0,0-3.64-3.63Z"/><path class="cls-5" d="M70,49.47H58.47a7.06,7.06,0,0,1-7-7.06V30.87a7.05,7.05,0,0,1,7-7H70a7.05,7.05,0,0,1,7,7.05V42.41A7.06,7.06,0,0,1,70,49.47ZM58.47,27.24a3.64,3.64,0,0,0-3.63,3.63V42.41a3.64,3.64,0,0,0,3.63,3.64H70a3.64,3.64,0,0,0,3.63-3.64V30.87A3.64,3.64,0,0,0,70,27.24Z"/><path class="cls-5" d="M64.24,78.54A12.83,12.83,0,1,1,77.07,65.72,12.83,12.83,0,0,1,64.24,78.54Zm0-22.23a9.41,9.41,0,1,0,9.41,9.41A9.42,9.42,0,0,0,64.24,56.31Z"/><path class="cls-5" d="M40.94,78.54H29.4a7.06,7.06,0,0,1-7.06-7.05V59.94a7.06,7.06,0,0,1,7.06-7H40.94a7.06,7.06,0,0,1,7.06,7V71.49A7.06,7.06,0,0,1,40.94,78.54ZM29.4,56.31a3.64,3.64,0,0,0-3.64,3.63V71.49a3.64,3.64,0,0,0,3.64,3.63H40.94a3.64,3.64,0,0,0,3.64-3.63V59.94a3.64,3.64,0,0,0-3.64-3.63Z"/></svg>
